!! 00000] TT[WS
!!!OTL: Shawei
!!!ARE: Asia, China,ÿShanxi  Heshun
!! Ethnic Group: Han
!! WI, 123
!!!SCT: J0146
!!!YEM: Copyright 1995, estate of Helmut Schaffrath.
**kern
*ICvox
*Ivox
*M2/4
*k[b-e-a-]
*E-:
{4ee-
8.g
16b-
=1
8cc
8dd
8cc
8b-
=2
4ee-
8g
8b-
=3
4cc
8b-
8cc
=4
4ee-
4r}
=5
{4ee-
8.cc
16b-
=6
8g
8b-
8cc
8g
=7
2b-}
=8
{8.b-
16cc
4ee-
=9
8cc
8dd
8cc
8b-
=10
4e-
8e-
8c
=11
4.e-
8f
=12
2g}
=13
{8r
8g
8g
8g
=14
4g
4ee-
=15
8cc
8b-
4e-
=16
8.e-
16f
4b-
=17
4g
12f
12e-
12c
=18
2B-}
==
!!!AGN: Xiaodiao. Qingge
!!!ONB: ESAC (Essen Associative Code) Database: CHINA
!!!AMT: simple duple
!!!AIN: vox
!!!EED: Helmut Schaffrath
!!!EEV: 1.0
*-
